!!!COM: Bach, Johann Sebastian
!!!OPR: Six Concerts Avec plusieurs ... le prince regnant d'Anhalt-Coethen
!!!OTL: Brandenburgische Konzerte B
!!!XEN: Brandenburg Concerto No. 6 in B-flat major.
!!!OMV: Movement 2.
!!!SCT: BWV 1051
!!!YEC: Copyright 1994, Center for Computer Assisted Research in the Humanities
!!!YEM: Rights to all derivative electronic formats reserved.
!!!YEM: Refer to licensing agreement for further details.
!! For the following instrumentation: Viola da braccio I & II,
!!    Viola da gamba I & II, Violoncello, Violone, Cembalo.
!! Adagio ma non tanto.
**kern	**kern	**kern	**kern	**kern	**kern	**kern
*ICklav	*ICstr	*ICstr	*ICstr	*ICstr	*ICstr	*ICstr
*Icemba	*Icbass	*Icello	*Iviolt	*Iviolt	*Iviola	*Iviola
*IGcont	*IGcont	*	*	*	*	*
!cemba	!v'lone	!'cello	!vla'g2	!vla'g1	!vla'b2	!vla'b1
*k[b-e-]	*k[b-e-]	*k[b-e-]	*k[b-e-]	*k[b-e-]	*k[b-e-]	*k[b-e-]
*E-:	*E-:	*E-:	*E-:	*E-:	*E-:	*E-:
*M3/2	*M3/2	*M3/2	*M3/2	*M3/2	*M3/2	*M3/2
*clefF4	*clefF4	*clefF4	*clefC4	*clefC4	*clefC3	*clefC3
*MM64	*MM64	*MM64	*MM64	*MM64	*MM64	*MM64
=1	=1	=1	=1	=1	=1	=1
2E-\	2EE-\	4E-\	1.r	1.r	2r	1.r
.	.	4F\	.	.	.	.
2G\	2GG\	4G\	.	.	2b-\	.
.	.	4E-\	.	.	.	.
2A-\	2AA-\	4A-\	.	.	2cc\	.
.	.	4F\	.	.	.	.
=2	=2	=2	=2	=2	=2	=2
1B-\	1BB-\	4B-\	1.r	1.r	1dt\	1.r
.	.	4A-\	.	.	.	.
.	.	4B-\	.	.	.	.
.	.	4G\	.	.	.	.
2c\	2C\	4c\	.	.	2e-\	.
.	.	4B-\	.	.	.	.
=3	=3	=3	=3	=3	=3	=3
2A-\	2AA-\	4A-\	1.r	1.r	4r	1.r
.	.	4G\	.	.	4e-\	.
2F\	2FF\	4A-\	.	.	4f\	.
.	.	4F\	.	.	(8a-\L	.
.	.	.	.	.	8g\J)	.
2B-\	2BB-\	4B-\	.	.	4a-\	.
.	.	4BB-/	.	.	[4a-\	.
=4	=4	=4	=4	=4	=4	=4
2E-\	2EE-\	4E-\	1.r	1.r	4a-\]	1.r
.	.	4F\	.	.	8g\L	.
.	.	.	.	.	8f\J	.
2D\	2DD\	4E-\	.	.	(8g\L	.
.	.	.	.	.	8a\)	.
.	.	4D\	.	.	(8g\	.
.	.	.	.	.	8a\J)	.
2C/	2CC/	4C/	.	.	4.at\	.
.	.	4E-\	.	.	.	.
.	.	.	.	.	8b-\	.
=5	=5	=5	=5	=5	=5	=5
2BB-/	2BBB-/	4D\	1.r	1.r	(8b-\L	2r
.	.	.	.	.	8f\	.
.	.	4C/	.	.	8dd\	.
.	.	.	.	.	8cc\J)	.
2D\	2DD\	4D\	.	.	(8b-\L	2ff\
.	.	.	.	.	8a-\)	.
.	.	4BB-/	.	.	(8g\	.
.	.	.	.	.	8f\J)	.
2E-\	2EE-\	4E-\	.	.	(8e-\L	2gg\
.	.	.	.	.	8d\J)	.
.	.	4C/	.	.	[4e-\	.
=6	=6	=6	=6	=6	=6	=6
1F\	1FF\	4F\	1.r	1.r	8e-\L]	1at\
.	.	.	.	.	8g\	.
.	.	4E-\	.	.	(8cc\	.
.	.	.	.	.	8b-\J)	.
.	.	4F\	.	.	(8a\L	.
.	.	.	.	.	8g\)	.
.	.	4D\	.	.	(8f\	.
.	.	.	.	.	8e-\J)	.
2G\	2GG\	4G\	.	.	(8d\L	2b-\
.	.	.	.	.	8c\J)	.
.	.	4F\	.	.	[4d\	.
=7	=7	=7	=7	=7	=7	=7
1E-\	1EE-\	4E-\	1.r	1.r	8d\L]	4r
.	.	.	.	.	8f\	.
.	.	4D\	.	.	(8b-\	4b-\
.	.	.	.	.	8a\J)	.
.	.	4E-\	.	.	(8g\L	4cc\
.	.	.	.	.	8f\)	.
.	.	4C/	.	.	(8e-\	(8ee-\L
.	.	.	.	.	16f\LL	8dd\J)
.	.	.	.	.	16g\JJ)	.
2F\	2FF\	4F\	.	.	(8c\L	4ee-\
.	.	.	.	.	8e-\)	.
.	.	4FF/	.	.	(8b-\	[4ee-\
.	.	.	.	.	8a\J)	.
=8	=8	=8	=8	=8	=8	=8
2BB-/	2BBB-/	4BB-/	1.r	1.r	[1.b-\	4ee-\]
.	.	4F\	.	.	.	(8dd\L
.	.	.	.	.	.	8cc\J)
2B-\	2BB-\	4B-\	.	.	.	4dd\
.	.	4c\	.	.	.	(8ff\L
.	.	.	.	.	.	8ee-\J)
2A-\	2AA-\	4B-\	.	.	.	4ff\
.	.	4A-\	.	.	.	[4ff\
=9	=9	=9	=9	=9	=9	=9
2G\	2GG\	4G\	1.r	1.r	1.b-\_	4ff\]
.	.	4A-\	.	.	.	(8ee-\L
.	.	.	.	.	.	8dd\J)
2F\	2FF\	4G\	.	.	.	4ee-\
.	.	4F\	.	.	.	(8gg\L
.	.	.	.	.	.	8ff\J)
2E-\	2EE-\	4E-\	.	.	.	4gg\
.	.	4G\	.	.	.	(8ff\L
.	.	.	.	.	.	8ee-\J)
=10	=10	=10	=10	=10	=10	=10
4D\	4DD\	4D\	1.r	1.r	8b-\L]	4.ff\
.	.	.	.	.	8dd\	.
4E-\	4EE-\	4E-\	.	.	8cc\	.
.	.	.	.	.	8b-\J	8gg\
2F\	2FF\	4F\	.	.	(2b-\	(2dd\
.	.	4E-\	.	.	.	.
2FF/	2FFF/	4F\	.	.	4.at\)	4.ccT\)
.	.	4FF/	.	.	.	.
.	.	.	.	.	8b-\	8b-\
=11	=11	=11	=11	=11	=11	=11
2BB-/	2BBB-/	4BB-/	1.r	1.r	2b-\	(8b-\L
.	.	.	.	.	.	8f\)
.	.	4C/	.	.	.	(8dd\
.	.	.	.	.	.	8cc\J)
2D\	2DD\	4D\	.	.	2f\	(8b-\L
.	.	.	.	.	.	8a-\)
.	.	4BB-/	.	.	.	(8g\
.	.	.	.	.	.	8f\J)
2E-\	2EE-\	4E-\	.	.	2g\	(8e-\L
.	.	.	.	.	.	8d\J)
.	.	4C/	.	.	.	[4e-\
=12	=12	=12	=12	=12	=12	=12
1F\	1FF\	4F\	1.r	1.r	1At/	8e-\L]
.	.	.	.	.	.	8g\
.	.	4E-\	.	.	.	(8cc\
.	.	.	.	.	.	8b-\J)
.	.	4F\	.	.	.	(8a\L
.	.	.	.	.	.	8g\)
.	.	4D\	.	.	.	(8f\
.	.	.	.	.	.	8e-\J)
2G\	2GG\	4G\	.	.	2B-/	(8d\L
.	.	.	.	.	.	8c\J)
.	.	4F\	.	.	.	[4d\
=13	=13	=13	=13	=13	=13	=13
1E-\	1EE-\	4E-\	1.r	1.r	4r	8d\L]
.	.	.	.	.	.	8f\
.	.	4D\	.	.	4B-/	(8b-\
.	.	.	.	.	.	8a-\J)
.	.	4E-\	.	.	4c\	(8g\L
.	.	.	.	.	.	8f\)
.	.	4C/	.	.	(8e-\L	(8e-\
.	.	.	.	.	8d\J)	16f\LL
.	.	.	.	.	.	16g\JJ)
2F\	2FF\	4F\	.	.	4e-\	(8c\L
.	.	.	.	.	.	8e-\)
.	.	4FF/	.	.	[4e-\	(8b-\
.	.	.	.	.	.	8a\J)
=14	=14	=14	=14	=14	=14	=14
2BB-/	2BBB-/	4BB-/	1.r	1.r	8e-\L]	4b-\
.	.	.	.	.	8d\	.
.	.	4AA-/	.	.	(8c\	4B-/
.	.	.	.	.	8d\J)	.
2GG/	2GGG/	4GG/	.	.	(8e-\L	2b-\
.	.	.	.	.	8d-\)	.
.	.	4EE-/	.	.	(8c\	.
.	.	.	.	.	8B-\J)	.
2AA-/	2AAA-/	4AA-/	.	.	(8A-/L	2cc\
.	.	.	.	.	8G/J)	.
.	.	4FF/	.	.	[4A-/	.
=15	=15	=15	=15	=15	=15	=15
1BB-/	1BBB-/	4BB-/	1.r	1.r	8A-/L]	1dt\
.	.	.	.	.	8c/	.
.	.	4AA-/	.	.	(8f/	.
.	.	.	.	.	8e-/J)	.
.	.	4BB-/	.	.	(8d/L	.
.	.	.	.	.	8c/)	.
.	.	4GG/	.	.	(8B-/	.
.	.	.	.	.	8A-/J)	.
2C/	2CC/	4C/	.	.	(8G/L	2e-\
.	.	.	.	.	8F/J)	.
.	.	4BB-/	.	.	[4G/	.
=16	=16	=16	=16	=16	=16	=16
1AA-/	1AAA-/	4AA-/	1.r	1.r	8G/]	4r
.	.	.	.	.	8b-\L	.
.	.	4GG/	.	.	(8ee-\	4e-\
.	.	.	.	.	8dd\J)	.
.	.	4AA-/	.	.	(8cc\L	4f\
.	.	.	.	.	8b-\)	.
.	.	4FF/	.	.	(8a-\	(8a-\L
.	.	.	.	.	16b-\LL	8g\J)
.	.	.	.	.	16cc\JJ)	.
2BB-/	2BBB-/	4BB-/	.	.	(8f\L	4a-\
.	.	.	.	.	8a-\)	.
.	.	4BB-/	.	.	(8ee-\	[4a-\
.	.	.	.	.	8dd\J)	.
=17	=17	=17	=17	=17	=17	=17
2EE-/	2EEE-/	4EE-/	1.r	1.r	[1.ee-\	4a-\]
.	.	4B-\	.	.	.	(8g\L
.	.	.	.	.	.	8f\J)
2E-\	2EE-\	4e-\	.	.	.	4g\
.	.	4f\	.	.	.	(8b-\L
.	.	.	.	.	.	8a-\J)
2D-\	2DD-\	4e-\	.	.	.	4b-\
.	.	4d-\	.	.	.	[4b-\
=18	=18	=18	=18	=18	=18	=18
2C/	2CC/	4c\	1.r	1.r	1.ee-\_	4b-\]
.	.	4d-\	.	.	.	(8a-\L
.	.	.	.	.	.	8g\J)
2BB-/	2BBB-/	4c\	.	.	.	4a-\
.	.	4B-\	.	.	.	(8cc\L
.	.	.	.	.	.	8b-\J)
2AA-/	2AAA-/	4A-\	.	.	.	4cc\
.	.	4c\	.	.	.	(8b-\L
.	.	.	.	.	.	8a-\J)
=19	=19	=19	=19	=19	=19	=19
4GG/	4GGG/	4G\	1.r	1.r	8ee-\L]	4.b-\
.	.	.	.	.	8gg\	.
4AA-/	4AAA-/	4A-\	.	.	8ff\	.
.	.	.	.	.	8ee-\J	8cc\
2BB-/	2BBB-/	4B-\	.	.	(2ee-\	(2g\
.	.	4A-\	.	.	.	.
2BB-/	2BBB-/	4B-\	.	.	4.ddt\)	4.fT\)
.	.	4BB-/	.	.	.	.
.	.	.	.	.	8ee-\	8e-\
=20	=20	=20	=20	=20	=20	=20
2EE-/	2EEE-/	4E-\	1.r	1.r	1ee-\	2e-\
.	.	4D\	.	.	.	.
2E-\	2EE-\	4E-\	.	.	.	2g\
.	.	4C\	.	.	.	.
2F\	2FF\	4F\	.	.	2r	2a-\
.	.	4D\	.	.	.	.
=21	=21	=21	=21	=21	=21	=21
1G\	1GG\	4G\	1.r	1.r	1.r	1Bt/
.	.	4F\	.	.	.	.
.	.	4G\	.	.	.	.
.	.	4E-\	.	.	.	.
2A-\	2AA-\	4A-\	.	.	.	2c\
.	.	4G\	.	.	.	.
=22	=22	=22	=22	=22	=22	=22
2F\	2FF\	4F\	1.r	1.r	1.r	4r
.	.	4E-\	.	.	.	4c\
2D\	2DD\	4F\	.	.	.	4d\
.	.	4D\	.	.	.	(8f\L
.	.	.	.	.	.	8e-\J)
2G\	2GG\	4G\	.	.	.	4f\
.	.	4GG/	.	.	.	[4f\
=23	=23	=23	=23	=23	=23	=23
[1.C/	[1.CC/	4C/	1.r	1.r	1.r	4f\]
.	.	4c\	.	.	.	(8e\L
.	.	.	.	.	.	8d\J)
.	.	4B-\	.	.	.	(8e\L
.	.	.	.	.	.	8f\)
.	.	4A-\	.	.	.	(8e\
.	.	.	.	.	.	8f\J)
.	.	4G\	.	.	.	4.fT\
.	.	4F\	.	.	.	.
.	.	.	.	.	.	8g\
=24	=24	=24	=24	=24	=24	=24
2C/]	2CC/]	4E\	1.r	1.r	2r	(8g\L
.	.	.	.	.	.	8b-\)
.	.	4C/	.	.	.	(8a-\
.	.	.	.	.	.	8g\J)
2AA-/	2AAA-/	4AA-/	.	.	2cc\	(8f\L
.	.	.	.	.	.	8e-\)
.	.	4FF/	.	.	.	(8d-\
.	.	.	.	.	.	8c\J)
2BB-/	2BBB-/	4BB-/	.	.	2dd-\	(8B-/L
.	.	.	.	.	.	8A/J)
.	.	4GG/	.	.	.	[4B-/
=25	=25	=25	=25	=25	=25	=25
1C/	1CC/	4C/	1.r	1.r	1et\	8B-\L]
.	.	.	.	.	.	8d-\
.	.	4BB-/	.	.	.	(8g\
.	.	.	.	.	.	8f\J)
.	.	4C/	.	.	.	(8e\L
.	.	.	.	.	.	8d\)
.	.	4AA-/	.	.	.	(8c\
.	.	.	.	.	.	8B-\J)
2D-\	2DD-\	4D-/	.	.	2f\	(8A-/L
.	.	.	.	.	.	8G/J)
.	.	4C/	.	.	.	[4A-/
=26	=26	=26	=26	=26	=26	=26
1BB-/	1BBB-/	4BB-/	1.r	1.r	4r	8A-/L]
.	.	.	.	.	.	8c/
.	.	4AA-/	.	.	4f\	(8f/
.	.	.	.	.	.	8e-/J)
.	.	4BB-/	.	.	4g\	(8d-/L
.	.	.	.	.	.	8c/)
.	.	4GG/	.	.	(8b-\L	(8B-/
.	.	.	.	.	8a-\J)	16c/LL
.	.	.	.	.	.	16d-/JJ)
2C/	2CC/	4C/	.	.	4b-\	(8G/L
.	.	.	.	.	.	8B-/)
.	.	4CC/	.	.	[4b-\	(8f/
.	.	.	.	.	.	8e/J)
=27	=27	=27	=27	=27	=27	=27
2FF/	2FFF/	4FF/	1.r	1.r	4b-\]	[1.f\
.	.	4C/	.	.	(8a-\L	.
.	.	.	.	.	8g\J)	.
2F\	2FF\	4F\	.	.	4a-\	.
.	.	4G\	.	.	(8cc\L	.
.	.	.	.	.	8b-\J)	.
2E-\	2EE-\	4F\	.	.	4cc\	.
.	.	4E-\	.	.	[4cc\	.
=28	=28	=28	=28	=28	=28	=28
2D-\	2DD-\	4D-\	1.r	1.r	4cc\]	1.f\_
.	.	4E-\	.	.	(8b-\L	.
.	.	.	.	.	8a-\J)	.
2C/	2CC/	4D-\	.	.	4b-\	.
.	.	4C/	.	.	(8dd-\L	.
.	.	.	.	.	8cc\J)	.
2BB-/	2BBB-/	4BB-/	.	.	4dd-\	.
.	.	4D-\	.	.	(8cc\L	.
.	.	.	.	.	8b-\J)	.
=29	=29	=29	=29	=29	=29	=29
4AA-/	4AAA-/	4AA-/	1.r	1.r	4.cc\	8f\L]
.	.	.	.	.	.	8a-\
4BB-/	4BBB-/	4BB-/	.	.	.	8g\
.	.	.	.	.	8dd-\	8f\J
2C/	2CC/	4C/	.	.	(2a-\	(2f\
.	.	4BB-/	.	.	.	.
2CC/	2CCC/	4C/	.	.	4.gT\)	4.et\)
.	.	4CC/	.	.	.	.
.	.	.	.	.	8f\	8f\
=30	=30	=30	=30	=30	=30	=30
1.FF/	1.FFF/	4FF/	1.r	1.r	2f\	2f\
.	.	4C/	.	.	.	.
.	.	4F\	.	.	2a-\	2r
.	.	4G\	.	.	.	.
.	.	4A-\	.	.	(8cc\L	2r
.	.	.	.	.	8b-\J)	.
.	.	4G\	.	.	4cc\	.
=31	=31	=31	=31	=31	=31	=31
1BB-/	1BBB-/	(4A-\	1.r	1.r	1dt\	1.r
.	.	8B-\L	.	.	.	.
.	.	8c\J)	.	.	.	.
.	.	4B-\	.	.	.	.
.	.	4A-\	.	.	.	.
2C/	2CC/	4G\	.	.	2e-\	.
.	.	4E-\	.	.	.	.
=32	=32	=32	=32	=32	=32	=32
1AA-/	1AAA-/	4A-\	1.r	1.r	4r	1.r
.	.	4G\	.	.	4e-\	.
.	.	4A-\	.	.	4f\	.
.	.	4F\	.	.	(8a-\L	.
.	.	.	.	.	8g\J)	.
2BB-/	2BBB-/	4B-\	.	.	4a-\	.
.	.	4BB-/	.	.	[4a-\	.
=33	=33	=33	=33	=33	=33	=33
[1.EE-/	[1.EEE-/	4E-\	1.r	1.r	4a-\]	1.r
.	.	4e-\	.	.	(8g\L	.
.	.	.	.	.	8f\J)	.
.	.	4d-\	.	.	(8g\L	.
.	.	.	.	.	8a-\)	.
.	.	4c\	.	.	(8g\	.
.	.	.	.	.	8a-\J)	.
.	.	4B-\	.	.	4.a-T\	.
.	.	4A-\	.	.	.	.
.	.	.	.	.	16g\LL	.
.	.	.	.	.	16a-\JJ	.
=34	=34	=34	=34	=34	=34	=34
2EE-/]	2EEE-/]	4G\	1.r	1.r	(8b-\L	2r
.	.	.	.	.	8dd-\)	.
.	.	4E-\	.	.	(8cc\	.
.	.	.	.	.	8b-\J)	.
2C/	2CC/	4C/	.	.	(8a-\L	2ee-\
.	.	.	.	.	8g\)	.
.	.	4AA-/	.	.	(8f\	.
.	.	.	.	.	8e-\J)	.
2D-\	2DD-\	4D-\	.	.	(8d-\L	2ff\
.	.	.	.	.	8c\J)	.
.	.	4BB-/	.	.	[4d-\	.
=35	=35	=35	=35	=35	=35	=35
1E-\	1EE-\	4E-\	1.r	1.r	8d-\L]	1gt\
.	.	.	.	.	8f\	.
.	.	4D-\	.	.	(8b-\	.
.	.	.	.	.	8a-\J)	.
.	.	4E-\	.	.	(8g\L	.
.	.	.	.	.	8f\)	.
.	.	4C/	.	.	(8e-\	.
.	.	.	.	.	8d-\J)	.
2F\	2FF\	4F\	.	.	(8c\L	2a-\
.	.	.	.	.	8B-\J)	.
.	.	4E-\	.	.	[4c\	.
=36	=36	=36	=36	=36	=36	=36
1D-\	1DD-\	4D-\	1.r	1.r	8c\L]	4r
.	.	.	.	.	8e-\	.
.	.	4C/	.	.	(8a-\	4a-\
.	.	.	.	.	8g\J)	.
.	.	4D-\	.	.	(8f\L	4b-\
.	.	.	.	.	8e-\)	.
.	.	4BB-/	.	.	(8d-\	(8dd-\L
.	.	.	.	.	16e-\LL	8cc\J)
.	.	.	.	.	16f\JJ)	.
2E-\	2EE-\	4E-\	.	.	(8B-\L	4dd-\
.	.	.	.	.	8d-\)	.
.	.	4EE-/	.	.	(8a-\	[4dd-\
.	.	.	.	.	8g\J)	.
=37	=37	=37	=37	=37	=37	=37
2AA-/	2AAA-/	4AA-/	1.r	1.r	[1.a-\	4dd-\]
.	.	4E-\	.	.	.	(8cc\L
.	.	.	.	.	.	8b-\J)
2A-\	2AA-\	4A-\	.	.	.	4cc\
.	.	4B-\	.	.	.	(8ee-\L
.	.	.	.	.	.	8dd-\J)
2G-\	2GG-\	4A-\	.	.	.	4ee-\
.	.	4G-\	.	.	.	[4ee-\
=38	=38	=38	=38	=38	=38	=38
2F\	2FF\	4F\	1.r	1.r	1.a-\_	4ee-\]
.	.	4G-\	.	.	.	(8dd-\L
.	.	.	.	.	.	8cc\J)
2E-\	2EE-\	4F\	.	.	.	4dd-\
.	.	4E-\	.	.	.	(8ff\L
.	.	.	.	.	.	8ee-\J)
2D-\	2DD-\	4D-\	.	.	.	4ff\
.	.	4F\	.	.	.	(8ee-\L
.	.	.	.	.	.	8dd-\J)
=39	=39	=39	=39	=39	=39	=39
4C/	4CC/	4C/	1.r	1.r	8a-\L]	4.ee-\
.	.	.	.	.	8cc\	.
4D-\	4DD-\	4D-\	.	.	8b-\	.
.	.	.	.	.	8a-\J	8ff\
2E-\	2EE-\	4E-\	.	.	(2a-\	(2cc\
.	.	4D-\	.	.	.	.
2EE-/	2EEE-/	4E-\	.	.	4.gt\)	4.b-T\)
.	.	4EE-/	.	.	.	.
.	.	.	.	.	8a-\	8a-\
=40	=40	=40	=40	=40	=40	=40
2AA-/	2AAA-/	2AA-/	1.r	1.r	4a-\	(8a-\L
.	.	.	.	.	.	8e-\)
.	.	.	.	.	4e-\	(8cc\
.	.	.	.	.	.	8b-\J)
2A-\	2AA-\	2A-\	.	.	4f\	(8a-\L
.	.	.	.	.	.	8g\)
.	.	.	.	.	(8a-\L	(8f\
.	.	.	.	.	8g\J)	8e-\J)
2c\	2C\	2c\	.	.	4a-\	(8d\L
.	.	.	.	.	.	8e-\)
.	.	.	.	.	[4a-\	(8d\
.	.	.	.	.	.	8e-\J)
=41	=41	=41	=41	=41	=41	=41
1Dt\	1DDt\	1Dt\	1.r	1.r	8a-\L]	4f\
.	.	.	.	.	8cc\	.
.	.	.	.	.	(8b-\	4f\
.	.	.	.	.	8a-\J)	.
.	.	.	.	.	(8g\L	4g\
.	.	.	.	.	8f\)	.
.	.	.	.	.	(8e\	(8b-\L
.	.	.	.	.	16g\LL	8a-x?\J)
.	.	.	.	.	16f\JJ)	.
!	!	!	!	!	!	! A-natural in some sources
2E\	2EE\	2E\	.	.	8g\L	4b-\
.	.	.	.	.	8b-\	.
.	.	.	.	.	8a-\	[4b-\
.	.	.	.	.	8g\J	.
=42	=42	=42	=42	=42	=42	=42
2r	2r	2r	1.r	1.r	4cc\	8b-\L]
.	.	.	.	.	.	8c\
.	.	.	.	.	4c\	(8a-\
.	.	.	.	.	.	8g\J)
2F\	2FF\	2F\	.	.	4d\	(8f\L
.	.	.	.	.	.	8e-\)
.	.	.	.	.	(8f\L	(8d\
.	.	.	.	.	8e-\J)	8c\J)
2A-\	2AA-\	2A-\	.	.	4f\	(8B/L
.	.	.	.	.	.	8c/)
.	.	.	.	.	[4f\	(8B/
.	.	.	.	.	.	8c/J)
=43	=43	=43	=43	=43	=43	=43
1BBt/	1BBBt/	1BBt/	1.r	1.r	8f\L]	4.d\
.	.	.	.	.	8a-\	.
.	.	.	.	.	(8g\	.
.	.	.	.	.	8f\J)	8a-\
.	.	.	.	.	(8e-\L	(8g\L
.	.	.	.	.	8d\)	8f\)
.	.	.	.	.	(8c\	(8e-\
.	.	.	.	.	16e-\LL	8d\J)
.	.	.	.	.	16d\JJ)	.
2C/	2CC/	2C/	.	.	(8e-\L	(8c\L
.	.	.	.	.	8d\J)	8B\)
.	.	.	.	.	[4e-\	(8c\
.	.	.	.	.	.	16e-\LL
.	.	.	.	.	.	16d\JJ)
=44	=44	=44	=44	=44	=44	=44
2r	2r	2r	1.r	1.r	4e-\]	(8e-\L
.	.	.	.	.	.	8g\)
.	.	.	.	.	4g\	(8ee-\
.	.	.	.	.	.	8dd\J)
2C/	2CC/	2c\	.	.	4a\	(8cc\L
.	.	.	.	.	.	8b\)
.	.	.	.	.	(8cc\L	(8a\
.	.	.	.	.	8b-\J)	8g\J)
2E-\	2EE-\	2e-\	.	.	4cc\	(8f#\L
.	.	.	.	.	.	8g\)
.	.	.	.	.	[4cc\	(8f#\
.	.	.	.	.	.	8g\J)
=45	=45	=45	=45	=45	=45	=45
1FF#t/	1FFF#t/	1F#t\	1.r	1.r	8cc\L]	4.a\
.	.	.	.	.	8ee-\	.
.	.	.	.	.	(8dd\	.
.	.	.	.	.	8cc\J)	8ee-\
.	.	.	.	.	(8b-\L	(8dd\L
.	.	.	.	.	8a\)	8cc\)
.	.	.	.	.	(8g\	(8b-\
.	.	.	.	.	16b-\LL	8a\J)
.	.	.	.	.	16a\JJ)	.
2GG/	2GGG/	2G\	.	.	(8b-\L	(8g\L
.	.	.	.	.	8a\J)	8f#\)
.	.	.	.	.	[4b-\	(8g\
.	.	.	.	.	.	16b-\LL
.	.	.	.	.	.	16a\JJ)
=46	=46	=46	=46	=46	=46	=46
4r	4r	4r	1.r	1.r	8b-\L]	4b-\
.	.	.	.	.	8g\	.
4GG/	4GGG/	4G\	.	.	(8a\	[4ee-\
.	.	.	.	.	8b-\J)	.
4AA/	4AAA/	4A\	.	.	(8cc\L	8ee-\L]
.	.	.	.	.	8b-\)	8ff\
4BB-/	4BBB-/	(8c\L	.	.	(8cc\	(8ee-\
.	.	8B-\J)	.	.	16ee-\LL	8dd\J)
.	.	.	.	.	16dd\JJ)	.
[2C/	[2CC/	4c\	.	.	(8ee-\L	(8cc\L
.	.	.	.	.	8dd\)	8b-\)
.	.	[4c\	.	.	(8cc\	(8a\
.	.	.	.	.	16dd\LL	16b-\LL
.	.	.	.	.	16ee-\JJ)	16cc\JJ)
=47	=47	=47	=47	=47	=47	=47
4C/]	4CC/]	4c\]	1.r	1.r	4a\)	4f#t\
8BB-/L	8BBB-/L	(8B-\L	.	.	(8dd\L	4d\
8AA/J	8AAA/J	8A\J)	.	.	8cc\J)	.
2BB-/	2BBB-/	(8B-\L	.	.	(8b-\L	4.g\
.	.	8c\)	.	.	8a\)	.
.	.	(8B-\	.	.	(8g\	.
.	.	8c\J)	.	.	8f\J)	8d\
2C/	2CC/	4.c\	.	.	(8e-\L	(8c/L
.	.	.	.	.	8d\)	8B-/J)
.	.	.	.	.	(16g\LL	(8A/L
.	.	.	.	.	16f#\JJ	.
.	.	8d\	.	.	8g\J)	16B-/LL
.	.	.	.	.	.	16G/JJ)
=48	=48	=48	=48	=48	=48	=48
2D\	2DD\	4d\	1.r	1.r	(8f#\L	2d\
.	.	.	.	.	8d\)	.
.	.	4c\	.	.	(8e\	.
.	.	.	.	.	8f#\J)	.
2GG/	2GGG/	4B-\	.	.	(8g\L	2dd\
.	.	.	.	.	8f\)	.
.	.	4G\	.	.	(8e-\	.
.	.	.	.	.	8d\J)	.
2C/	2CC/	4c\	.	.	(8c/L	2ee-\
.	.	.	.	.	8B/J)	.
.	.	4A\	.	.	[4c\	.
=49	=49	=49	=49	=49	=49	=49
1D\	1DD\	4d\	1.r	1.r	8c\L]	1f#t\
.	.	.	.	.	8e-\	.
.	.	4c\	.	.	(8a\	.
.	.	.	.	.	8g\J)	.
.	.	4d\	.	.	(8f#\L	.
.	.	.	.	.	8e\)	.
.	.	4B-\	.	.	(8d\	.
.	.	.	.	.	8c\J)	.
2E-\	2EE-\	4e-\	.	.	(8B-/L	2g\
.	.	.	.	.	8A/J)	.
.	.	4d\	.	.	[4B-/	.
=50	=50	=50	=50	=50	=50	=50
1C/	1CC/	4c\	1.r	1.r	8B-\L]	4r
.	.	.	.	.	8d\	.
.	.	4B-\	.	.	(8g\	4g\
.	.	.	.	.	8f\J)	.
.	.	4c\	.	.	(8e-\L	4a\
.	.	.	.	.	8d\)	.
.	.	4A\	.	.	(8c\	(8cc\L
.	.	.	.	.	16d\LL	8b-\J)
.	.	.	.	.	16e-\JJ)	.
2D\	2DD\	4d\	.	.	(8A\L	4cc\
.	.	.	.	.	8c\)	.
.	.	4D\	.	.	(8g\	[4cc\
.	.	.	.	.	8f#\J)	.
=51	=51	=51	=51	=51	=51	=51
2GG/	2GGG/	4G\	1.r	1.r	[1.g\	4cc\]
.	.	4D\	.	.	.	(8b-\L
.	.	.	.	.	.	8a\J)
2G\	2GG\	4G\	.	.	.	4b-\
.	.	4A\	.	.	.	(8dd\L
.	.	.	.	.	.	8cc\J)
2F\	2FF\	4G\	.	.	.	4dd\
.	.	4F\	.	.	.	[4dd\
=52	=52	=52	=52	=52	=52	=52
2E-\	2EE-\	4E-\	1.r	1.r	1.g\_	4dd\]
.	.	4F\	.	.	.	(8cc\L
.	.	.	.	.	.	8b-\J)
2D\	2DD\	4E-\	.	.	.	4cc\
.	.	4D\	.	.	.	(8ee-\L
.	.	.	.	.	.	8dd\J)
2C/	2CC/	4C/	.	.	.	4ee-\
.	.	4E-\	.	.	.	(8dd\L
.	.	.	.	.	.	8cc\J)
=53	=53	=53	=53	=53	=53	=53
4BB-/	4BBB-/	4BB-/	1.r	1.r	8g\L]	4.dd\
.	.	.	.	.	(8b-\	.
4C/	4CC/	4C/	.	.	8a\	.
.	.	.	.	.	8g\J)	8ee-\
2D\	2DD\	4D\	.	.	(2g\	(2b-\
.	.	4C/	.	.	.	.
2C/	2CC/	4D\	.	.	4.f#t\)	8at\L
.	.	.	.	.	.	8g\J)
.	.	4AA/	.	.	.	4a\
.	.	.	.	.	8g\	.
=54	=54	=54	=54	=54	=54	=54
2BB/	2BBB/	(8BB/L	1.r	1.r	1.f\	1.g\
.	.	8AA/	.	.	.	.
.	.	8GG/)	.	.	.	.
.	.	8AA/J	.	.	.	.
2r	2r	8BB/L	.	.	.	.
.	.	8C/	.	.	.	.
.	.	8D/	.	.	.	.
.	.	8E-/J	.	.	.	.
2r	2r	(8F\L	.	.	.	.
.	.	8G\	.	.	.	.
.	.	8A-\)	.	.	.	.
.	.	8G\J	.	.	.	.
=55	=55	=55	=55	=55	=55	=55
2BB-/	2BBB-/	(8B-\L	1.r	1.r	1.e\	1.cc\
.	.	8A\	.	.	.	.
.	.	8G\	.	.	.	.
.	.	8F\J)	.	.	.	.
2r	2r	(8E/L	.	.	.	.
.	.	8D/	.	.	.	.
.	.	8C/	.	.	.	.
.	.	8BB-/J)	.	.	.	.
2r	2r	(8AA/L	.	.	.	.
.	.	8GG/)	.	.	.	.
.	.	(8FF#/	.	.	.	.
.	.	16AA/LL	.	.	.	.
.	.	16GG/JJ)	.	.	.	.
=56	=56	=56	=56	=56	=56	=56
4AA/	4AAA/	4AA/	1.r	1.r	[1.e-\	[1.f#\
4DD/	4DDD/	4DD/	.	.	.	.
4AA/	4AAA/	4AA/	.	.	.	.
4BB-/	4BBB-/	(8C/L	.	.	.	.
.	.	8BB-/J)	.	.	.	.
4C/	4CC/	4C/	.	.	.	.
4C/	4CC/	4C/	.	.	.	.
=57	=57	=57	=57	=57	=57	=57
2C/	2CC/	(2C/	1.r	1.r	4e-\]	4f#\]
.	.	.	.	.	4F#/	4d\
4BB-/	4BBB-/	4BB-T/)	.	.	4G/	4e\
4AA/	4AAA/	4AA/	.	.	(8B-/L	(8g\L
.	.	.	.	.	8A/J)	8f#\J)
4GG/	4GGG/	4GG/	.	.	4B-/	4g\
4AA/	4AAA/	4AA/	.	.	(8d\L	[4g\
.	.	.	.	.	8c\J)	.
=58	=58	=58	=58	=58	=58	=58
4BB-/	4BBB-/	4BB-/	1.r	1.r	4.d\	8g\L]
.	.	.	.	.	.	(8b-\
4C/	4CC/	4C/	.	.	.	8a\
.	.	.	.	.	8e-\	8g\J)
4D/	4DD/	4D/	.	.	(2B-/	2.f#t\
4C/	4CC/	4C/	.	.	.	.
4D/	4DD/	4D/	.	.	4.At/)	.
4DD/	4DDD/	4DD/	.	.	.	4g\
.	.	.	.	.	8G/	.
=59	=59	=59	=59	=59	=59	=59
2GG/	2GGG/	(8GG/L	1.r	1.r	2G/	4g\
.	.	8D/)	.	.	.	.
.	.	(8G/	.	.	.	4b-\
.	.	8F/J)	.	.	.	.
2r	2r	(8E-/L	.	.	4r	4cc\
.	.	8D/)	.	.	.	.
.	.	(8C/	.	.	(8g\L	(8ee-\L
.	.	8BB/J)	.	.	8f\J)	8dd\J)
2C/	2CC/	(8C/L	.	.	(8e-\L	[2ee-\
.	.	8BB-/)	.	.	8d\)	.
.	.	(8AA/	.	.	(8c\	.
.	.	16BB-/LL	.	.	16d\LL	.
.	.	16C/JJ)	.	.	16e-\JJ)	.
=60	=60	=60	=60	=60	=60	=60
2FF/	2FFF/	(8FF/L	1.r	1.r	2A/	4ee-\]
.	.	8C/)	.	.	.	.
.	.	(8F/	.	.	.	4a\
.	.	8E-/J)	.	.	.	.
2r	2r	(8D/L	.	.	4r	4b-\
.	.	8C/)	.	.	.	.
.	.	(8BB-/	.	.	(8f\L	(8dd\L
.	.	8AA/J)	.	.	8e-\J)	8cc\J)
2BB-/	2BBB-/	(8BB-/L	.	.	(8d\L	[2dd\
.	.	8AA/)	.	.	8c\)	.
.	.	(8GG/	.	.	(8B-\	.
.	.	16AA/LL	.	.	16c\LL	.
.	.	16BB-/JJ)	.	.	16d\JJ)	.
=61	=61	=61	=61	=61	=61	=61
2EE-/	2EEE-/	2EE-/	1.r	1.r	4.G/	8dd\L]
.	.	.	.	.	.	(8ee-\
.	.	.	.	.	.	8dd\
.	.	.	.	.	8e-\	8cc\J)
2r	2r	2r	.	.	(8d/L	(8b-\L
.	.	.	.	.	8c/)	8a\)
.	.	.	.	.	(8B-/	(8g\
.	.	.	.	.	8A/J)	8f#\J)
2EE-/	2EEE-/	2EE-/	.	.	(8B-/L	(8g\L
.	.	.	.	.	8G/)	16a\LL
.	.	.	.	.	.	16b-\JJ)
.	.	.	.	.	(8d/	(8a\L
.	.	.	.	.	8c/J)	16b-\LL
.	.	.	.	.	.	16cc\JJ)
=62	=62	=62	=62	=62	=62	=62
1.DD;/	1.DDD;/	1.DD;/	1.r	1.r	1.d;\	1.f#;\
=	=	=	=	=	=	=
*M12/8	*M12/8	*M12/8	*M12/8	*M12/8	*M12/8	*M12/8
*-	*-	*-	*-	*-	*-	*-
!!!CDT: 1685/3//-1750/7/28
!!!OCY: Deutschland
!!!ODE: His Royal Highness Christian Ludwig, Margrave of Brandenburg.
!!!ODT: 1708//-1710//
!!!OPC: ?Weimar
!!!PPR: Peters
!!!PDT: 1850
!!!PPP: Leipzig
!!!AGN: concerto grosso
!!!AST: baroque, orchestral
!!!AMT: simple quadruple
!!!SCA: Bach-Werke-Verzeichnis
!!!YOR: Bach Gesellschaft, xix,167
!!!YOY: 1871; although imprint says 1869
!!!AIN: cemba; cbass; cello; violt; viola
!!!EEV: 1.0
!!!RDT: 1994 April 23
!!!YER: 1994 October 23
!!!YEN: United States of America
!!!EFL: 2/3
!!!EED: W.B. Hewlett
!!!VTS: 3602831907
